X: 3587
T: Bill Brian
R: hornpipe
M: 4/4
K: Cdorian
FE|DB,DF EFG_A|AFAc Bcde|fdBA BFDE|F2C2C2FE|
DB,DF EFG_A|AFAc Bcde|f2dB AFce|d2B2B2FE|
DFBc defe|d2B2B2D2|=EGcd _efgb|a2f2f2A2|
Bcde =efga|bfdB ABFD|E=EFG ABce|d2B2B2||

